X: 1
T: Gigue Des Capuchons
R: jig
M: 6/8
L: 1/8
K: Dmaj
|:faa afa|gfe d2e|faf ede|fdf efg|
faa afa|gfe d2e|faf ede|fdd d2 [1 e:|2 F||
|:A3 G3|FAd fed|cBc edc|dfe dcB
A3 G3|FAd fed|cBc edc|dfe d3:|

